resources/svg/bag-plus.svg

<svg xmlns="http://www.w3.org/2000/svg" viewBox="0 0 15 15" fill="currentColor"><path d="M5 3.5C5 2.11929 6.11929 1 7.5 1C8.88071 1 10 2.11929 10 3.5V4H11V3.5C11 1.567 9.433 0 7.5 0C5.567 0 4 1.567 4 3.5V4H5V3.5Z" fill="black"/><path fill-rule="evenodd" clip-rule="evenodd" d="M1.90432 6.33435C1.98872 5.5747 2.63082 5 3.39514 5H11.6051C12.3694 5 13.0115 5.5747 13.0959 6.33435L13.8737 13.3344C13.9724 14.2229 13.2769 15 12.3828 15H2.61737C1.72335 15 1.02781 14.2229 1.12654 13.3344L1.90432 6.33435ZM7 9V7H8V9H10V10H8V12H7V10H5V9H7Z" fill="black"/></svg>

<svg xmlns="http://www.w3.org/2000/svg" viewBox="0 0 15 15" fill="currentColor"><path d="M5 3.5a2.5 2.5 0 015 0V4h1v-.5a3.5 3.5 0 10-7 0V4h1v-.5z" fill="currentColor"/><path fill-rule="evenodd" clip-rule="evenodd" d="M1.904 6.334A1.5 1.5 0 013.395 5h8.21a1.5 1.5 0 011.49 1.334l.779 7A1.5 1.5 0 0112.383 15H2.617a1.5 1.5 0 01-1.49-1.666l.777-7zM7 9V7h1v2h2v1H8v2H7v-2H5V9h2z" fill="currentColor"/></svg>
